COLOR/apps 16/16/org.gnome.Geary.svg

<svg height="16" width="16" xmlns="http://www.w3.org/2000/svg" xmlns:xlink="http://www.w3.org/1999/xlink"><linearGradient id="a" gradientTransform="matrix(.14423074 0 0 .14423076 -1.230769 -26.24038)" gradientUnits="userSpaceOnUse" x1="18" x2="110.132" y1="196.23199" y2="196.23199"><stop offset="0" stop-color="#eab305"/><stop offset=".035" stop-color="#fdc92b"/><stop offset=".962" stop-color="#fdc92b"/><stop offset="1" stop-color="#eab305"/></linearGradient><linearGradient id="b" gradientTransform="matrix(1.0096562 0 0 1 -.077576 0)" gradientUnits="userSpaceOnUse" x1=".572052" x2="15.428594" y1="8.000007" y2="8.000007"><stop offset="0" stop-color="#e5a50a"/><stop offset=".042" stop-color="#f9cf69" stop-opacity=".965"/><stop offset=".097" stop-color="#f6ba29" stop-opacity=".965"/><stop offset=".921" stop-color="#f6ba2b" stop-opacity=".996"/><stop offset=".974" stop-color="#f9cf69"/><stop offset="1" stop-color="#e5a50a" stop-opacity=".828"/></linearGradient><path d="m11.629431.50000636c3.509605 0 3.887236.30899 3.870032 3.32331004v4.1766902 4.1766794c.01716 3.01433-.360427 3.32332-3.870032 3.32332h-7.2593884c-3.50961553 0-3.8700426-.30895-3.8700426-3.32332v-4.1766794-4.1766902c0-3.01436004.36043718-3.32331004 3.8700426-3.32331004z" fill="url(#b)" stroke-width="1.004817"/><path d="m11.63042 15.5c3.509605 0 3.869034-.309859 3.869034-3.324219v-.5c0 3.01436-.359429 3.324219-3.869034 3.324219h-7.2608481c-3.50960541 0-3.88623848-.309899-3.86903394-3.324219v.5c-.01720454 3.01432.35942853 3.324219 3.86903394 3.324219z" opacity=".2" stroke-width="1.004817"/><g stroke-width=".144231"><path d="m15.5 3.8242188c.004301-.7535801-.015694-1.3381591-.103516-1.7910157-.087821-.4528565-.244286-.7749343-.509765-1.0019531-.265479-.22701875-.64125-.35948031-1.169922-.43554688-.528672-.07606656-1.210489-.09570312-2.087891-.09570312h-7.2597654c-.8774013 0-1.5566551.01963969-2.0839844.09570312-.5273292.07606344-.9016106.20853063-1.1660156.43554688-.26440496.2270163-.4191839.5490947-.50781248 1.0019531-.08862857.4528585-.11132812 1.0374256-.11132812 1.7910157v6.2812502c0 .639231.5150661 1.154297 1.1542969 1.154297h12.6914061c.639231 0 1.154297-.515066 1.154297-1.154297z" fill="#ffda64"/><rect fill="url(#a)" height="9.230769" rx="1.147891" ry=".844563" width="13.269229" x="1.365382" y="1.16346"/><rect fill="#eab305" height="5.769231" rx=".288462" width="13.269229" x="1.365382" y="4.624996"/><path d="m1.9717307 2.6139881a.31442306.31442308 0 0 0 -.3144239.314421l-.00344 7.4658239h2.596151v1.153842h7.4999972v-1.153842h2.596154l-.008-7.4656759a.31442306.31442308 0 0 0 -.314354-.314421h-8.637314z" fill="#f6f5f4"/><path d="m1.7204815 2.7032651 6.2262959 5.0316392 6.2893266-5.0316392-6.2893266 5.3460602z" opacity=".1"/><path d="m1.9717307 2.7032651c-.067207 0-.1293746.02134-.1804331.05728l6.1554798 4.9743742 6.1864876-4.9492822a.31298076.31298077 0 0 0 -.211585-.08221h-8.5351426z" fill="#f7f8f9"/><path d="m7.9466339 6.1884567c-.576924 0-1.153846.20611-1.5957694.618174l-4.6935577 3.3057713-.00344-.0067v.288467h12.6923152v-.288497l-4.8036048-3.2991353c-.442067-.412064-1.01899-.618174-1.5957684-.618174z" opacity=".05"/><path d="m7.9466339 6.4769237c-.576924 0-1.153846.206103-1.5957694.618168l-4.6935577 3.3057713 2.5926931-.0067v1.442303h7.4999981v-1.442303h2.596153l-4.8036041-3.2991733c-.442066-.412064-1.01899-.618167-1.5957695-.618167z" fill="#f0f0ee"/><path d="m2.0220674 2.7032651a.31442306.31442308 0 0 0 -.2913467.196155l4.7783649 4.8383652a2.0812498 2.0812499 0 0 0 2.9759126 0l4.7782218-4.8385072a.31442306.31442308 0 0 0 -.291348-.196013h-8.5349979z" opacity=".12"/><path d="m2.0220674 2.7032651c-.068076 0-.1308169.02181-.182307.05856l4.6693252 4.6693282a2.0997114 2.0997115 0 0 0 2.9759126 0l4.6693268-4.6693302a.31269229.3126923 0 0 0 -.182307-.05856h-8.5352884z" fill="#f6f5f4"/><path d="m4.2499999 12.413463v1.009615c0 .319611.2573068.576922.576922.576922h6.3461531c.319615 0 .576923-.257311.576923-.576922v-1.009615c0 .319611-.257308.576921-.576923.576921h-6.3461531c-.3196152 0-.576922-.25731-.576922-.576921z" fill="#fee581"/><path d="m11.749998 11.836536v.576927c0 .319611-.257308.576921-.576923.576921h-6.3461531c-.3196152 0-.576922-.25731-.576922-.576921v-.576927z" fill="#c8c4b7"/></g><path d="m4.3690343.5c-3.50960548 0-3.8690343.30985871-3.8690343 3.3242188v.5c0-3.01436.35942883-3.3242188 3.8690343-3.3242188h7.2608477c3.509606 0 3.886238.3098987 3.869033 3.3242188v-.5c.017205-3.01432009-.359427-3.3242188-3.869033-3.3242188z" fill="#fff" opacity=".3" stroke-width="1.004817"/></svg>

<?xml version="1.0" encoding="UTF-8" standalone="no"?>
<svg
   xmlns:dc="http://purl.org/dc/elements/1.1/"
   xmlns:cc="http://creativecommons.org/ns#"
   xmlns:rdf="http://www.w3.org/1999/02/22-rdf-syntax-ns#"
   xmlns:svg="http://www.w3.org/2000/svg"
   xmlns="http://www.w3.org/2000/svg"
   xmlns:xlink="http://www.w3.org/1999/xlink"
   xmlns:sodipodi="http://sodipodi.sourceforge.net/DTD/sodipodi-0.dtd"
   xmlns:inkscape="http://www.inkscape.org/namespaces/inkscape"
   height="16"
   width="16"
   version="1.1"
   id="svg12"
   sodipodi:docname="winetricks.svg"
   inkscape:version="0.92.5 (2060ec1f9f, 2020-04-08)">
  <metadata
     id="metadata18">
    <rdf:RDF>
      <cc:Work
         rdf:about="">
        <dc:format>image/svg+xml</dc:format>
        <dc:type
           rdf:resource="http://purl.org/dc/dcmitype/StillImage" />
        <dc:title></dc:title>
      </cc:Work>
    </rdf:RDF>
  </metadata>
  <defs
     id="defs16">
    <linearGradient
       xlink:href="#e"
       id="f"
       gradientUnits="userSpaceOnUse"
       x1="12"
       y1="196.23199"
       x2="116"
       y2="196.23199"
       gradientTransform="matrix(0.14423076,0,0,0.14423076,-21.434143,-24.004532)" />
    <linearGradient
       id="e">
      <stop
         offset="0"
         stop-color="#e5a50a"
         id="stop2-3" />
      <stop
         offset=".042"
         stop-color="#f9cf69"
         stop-opacity=".965"
         id="stop4-6" />
      <stop
         offset=".097"
         stop-color="#f6ba29"
         stop-opacity=".965"
         id="stop6-7" />
      <stop
         offset=".921"
         stop-color="#f6ba2b"
         stop-opacity=".996"
         id="stop8-5" />
      <stop
         offset=".974"
         stop-color="#f9cf69"
         id="stop10" />
      <stop
         offset="1"
         stop-color="#e5a50a"
         stop-opacity=".828"
         id="stop12" />
    </linearGradient>
    <linearGradient
       xlink:href="#d-3"
       id="g"
       x1="18"
       y1="196.23199"
       x2="110.132"
       y2="196.23199"
       gradientUnits="userSpaceOnUse"
       gradientTransform="matrix(0.14423074,0,0,0.14423076,-1.2307691,-26.24038)" />
    <linearGradient
       id="d-3">
      <stop
         offset="0"
         stop-color="#e5a50a"
         id="stop15"
         style="stop-color:#eab305;stop-opacity:1" />
      <stop
         offset=".035"
         stop-color="#f6ba29"
         stop-opacity=".965"
         id="stop17"
         style="stop-color:#fdc92b;stop-opacity:1" />
      <stop
         offset=".962"
         stop-color="#f6bb2c"
         id="stop19-5"
         style="stop-color:#fdc92b;stop-opacity:1" />
      <stop
         offset="1"
         stop-color="#e5a50a"
         stop-opacity=".828"
         id="stop21-6"
         style="stop-color:#eab305;stop-opacity:1" />
    </linearGradient>
    <linearGradient
       inkscape:collect="always"
       xlink:href="#e"
       id="linearGradient896"
       x1="0.57205212"
       y1="8.0000067"
       x2="15.428594"
       y2="8.0000067"
       gradientUnits="userSpaceOnUse"
       gradientTransform="matrix(1.0096562,0,0,1,-0.07757599,0)" />
  </defs>
  <sodipodi:namedview
     pagecolor="#ffffff"
     bordercolor="#666666"
     borderopacity="1"
     objecttolerance="10"
     gridtolerance="10"
     guidetolerance="10"
     inkscape:pageopacity="0"
     inkscape:pageshadow="2"
     inkscape:window-width="1920"
     inkscape:window-height="1016"
     id="namedview14"
     showgrid="false"
     inkscape:zoom="39.561149"
     inkscape:cx="7.412327"
     inkscape:cy="7.3245005"
     inkscape:window-x="0"
     inkscape:window-y="27"
     inkscape:window-maximized="1"
     inkscape:current-layer="svg12" />
  <path
     d="m 11.629431,0.50000636 c 3.509605,0 3.887236,0.30899 3.870032,3.32331004 v 4.1766902 4.1766794 c 0.01716,3.01433 -0.360427,3.32332 -3.870032,3.32332 H 4.3700426 C 0.86042707,15.500006 0.5,15.191056 0.5,12.176686 V 8.0000066 3.8233164 C 0.5,0.80895636 0.86043718,0.50000636 4.3700426,0.50000636 Z"
     id="path2"
     style="fill:url(#linearGradient896);fill-opacity:1;stroke-width:1.00481653"
     inkscape:connector-curvature="0" />
  <path
     d="m 11.63042,15.5 c 3.509605,0 3.869034,-0.309859 3.869034,-3.324219 v -0.5 C 15.499454,14.690141 15.140025,15 11.63042,15 H 4.3695719 C 0.85996649,15 0.48333342,14.690101 0.50053796,11.675781 v 0.5 C 0.48333342,15.190101 0.85996649,15.5 4.3695719,15.5 Z"
     id="path10"
     inkscape:connector-curvature="0"
     style="opacity:0.2;stroke-width:1.00481653" />
  <path
     style="fill:#ffda64;fill-opacity:1;stroke-width:0.14423075;marker:none"
     d="M 15.5 3.8242188 C 15.504301 3.0706387 15.484306 2.4860597 15.396484 2.0332031 C 15.308663 1.5803466 15.152198 1.2582688 14.886719 1.03125 C 14.62124 0.80423125 14.245469 0.67176969 13.716797 0.59570312 C 13.188125 0.51963656 12.506308 0.5 11.628906 0.5 L 4.3691406 0.5 C 3.4917393 0.5 2.8124855 0.51963969 2.2851562 0.59570312 C 1.757827 0.67176656 1.3835456 0.80423375 1.1191406 1.03125 C 0.85473564 1.2582663 0.6999567 1.5803447 0.61132812 2.0332031 C 0.52269955 2.4860616 0.5 3.0706287 0.5 3.8242188 L 0.5 10.105469 C 0.5 10.7447 1.0150661 11.259766 1.6542969 11.259766 L 14.345703 11.259766 C 14.984934 11.259766 15.5 10.7447 15.5 10.105469 L 15.5 3.8242188 z "
     id="path901" />
  <rect
     ry="0.84456271"
     rx="1.1478907"
     y="1.16346"
     x="1.3653815"
     height="9.2307692"
     width="13.269229"
     style="fill:url(#g);stroke-width:0.14423075;marker:none"
     id="rect47" />
  <rect
     style="fill:#eab305;fill-opacity:1;stroke-width:0.14423075;marker:none"
     width="13.269229"
     height="5.7692308"
     x="1.3653815"
     y="4.6249957"
     rx="0.28846154"
     ry="0.28846154"
     id="rect49" />
  <path
     d="m 1.9717307,2.6139881 a 0.31442306,0.31442308 0 0 0 -0.3144239,0.314421 l -0.00344,7.4658239 h 2.596151 v 1.153842 h 7.4999972 v -1.153842 h 2.596154 l -0.008,-7.4656759 A 0.31442306,0.31442308 0 0 0 14.023815,2.6141361 H 5.386501 Z"
     style="fill:#f6f5f4;stroke-width:0.14423075;marker:none"
     id="path51"
     inkscape:connector-curvature="0" />
  <path
     d="M 1.7204815,2.7032651 7.9467774,7.7349043 14.236104,2.7032651 7.9467774,8.0493253 Z"
     id="path53"
     inkscape:connector-curvature="0"
     style="opacity:0.1;stroke-width:0.14423075" />
  <path
     d="m 1.9717307,2.7032651 c -0.067207,0 -0.1293746,0.02134 -0.1804331,0.05728 L 7.9467774,7.7349193 14.133265,2.7856371 A 0.31298076,0.31298077 0 0 0 13.92168,2.7034271 H 5.3865374 Z"
     style="fill:#f7f8f9;stroke-width:0.14423075;marker:none"
     id="path55"
     inkscape:connector-curvature="0" />
  <path
     style="opacity:0.05;stroke-width:0.14423075;marker:none"
     d="m 7.9466339,6.1884567 c -0.576924,0 -1.153846,0.20611 -1.5957694,0.618174 l -4.6935577,3.3057713 -0.00344,-0.0067 v 0.288467 H 14.346182 V 10.105672 L 9.5425772,6.8065367 c -0.442067,-0.412064 -1.01899,-0.618174 -1.5957684,-0.618174 z"
     id="path57"
     inkscape:connector-curvature="0" />
  <path
     d="m 7.9466339,6.4769237 c -0.576924,0 -1.153846,0.206103 -1.5957694,0.618168 l -4.6935577,3.3057713 2.5926931,-0.0067 v 1.442303 h 7.4999981 v -1.442303 h 2.596153 L 9.5425469,7.0949897 c -0.442066,-0.412064 -1.01899,-0.618167 -1.5957695,-0.618167 z"
     style="fill:#f0f0ee;stroke-width:0.14423075;marker:none"
     id="path59"
     inkscape:connector-curvature="0" />
  <path
     d="m 2.0220674,2.7032651 a 0.31442306,0.31442308 0 0 0 -0.2913467,0.196155 l 4.7783649,4.8383652 a 2.0812498,2.0812499 0 0 0 2.9759126,0 L 14.26322,2.8992781 A 0.31442306,0.31442308 0 0 0 13.971872,2.7032651 H 5.4368741 Z"
     style="opacity:0.12000002;stroke-width:0.14423075;marker:none"
     id="path61"
     inkscape:connector-curvature="0" />
  <path
     d="m 2.0220674,2.7032651 c -0.068076,0 -0.1308169,0.02181 -0.182307,0.05856 l 4.6693252,4.6693282 a 2.0997114,2.0997115 0 0 0 2.9759126,0 L 14.154325,2.7618231 a 0.31269229,0.3126923 0 0 0 -0.182307,-0.05856 H 5.4367296 Z"
     style="fill:#f6f5f4;stroke-width:0.14423075;marker:none"
     id="path63"
     inkscape:connector-curvature="0" />
  <path
     d="m 4.2499999,12.413463 v 1.009615 C 4.2499999,13.742689 4.5073067,14 4.8269219,14 h 6.3461531 c 0.319615,0 0.576923,-0.257311 0.576923,-0.576922 v -1.009615 c 0,0.319611 -0.257308,0.576921 -0.576923,0.576921 H 4.8269219 c -0.3196152,0 -0.576922,-0.25731 -0.576922,-0.576921 z"
     id="path65"
     inkscape:connector-curvature="0"
     style="fill:#fee581;fill-opacity:1;stroke-width:0.14423075" />
  <path
     d="m 11.749998,11.836536 v 0.576927 c 0,0.319611 -0.257308,0.576921 -0.576923,0.576921 H 4.8269219 c -0.3196152,0 -0.576922,-0.25731 -0.576922,-0.576921 v -0.576927 z"
     id="path67"
     inkscape:connector-curvature="0"
     style="fill:#c8c4b7;fill-opacity:1;stroke-width:0.14423075" />
  <path
     d="M 4.3690343,0.5 C 0.85942882,0.5 0.5,0.80985871 0.5,3.8242188 v 0.5 C 0.5,1.3098588 0.85942883,1 4.3690343,1 h 7.2608477 c 3.509606,0 3.886238,0.3098987 3.869033,3.3242188 v -0.5 C 15.51612,0.80989871 15.139488,0.5 11.629882,0.5 Z"
     id="path8"
     inkscape:connector-curvature="0"
     style="opacity:0.3;fill:#ffffff;stroke-width:1.00481653" />
</svg>
